packages/match-logos/mono/svg/airbnb.svg

<svg fill="none" height="36" viewBox="0 0 116 36" width="116" xmlns="http://www.w3.org/2000/svg" xmlns:xlink="http://www.w3.org/1999/xlink"><clipPath id="a"><path d="m0 0h115.8v36h-115.8z"/></clipPath><g clip-path="url(#a)"><path d="m56.9469 13.2991h3.4903v13.6h-3.4903zm-24.3115 11.0726c-.3009-.662-.6017-1.2637-.8425-1.8655l-.0601-.0602c-2.4673-5.4159-5.1752-10.892-8.0036-16.30795l-.1203-.24071c-.3009-.54159-.6018-1.14336-.8425-1.68495-.3611-.66195-.7221-1.3239-1.3239-1.98584-1.1434-1.44425-2.7681-2.22655-4.5734-2.22655-1.8054 0-3.4301.7823-4.6337 2.16637-.5416.66195-.9628 1.32389-1.3239 1.98584-.3008.60177-.6017 1.14336-.8424 1.68495l-.12039.24071c-2.76814 5.41593-5.47611 10.89203-8.00354 16.30793l-.06018.0602c-.24071.6018-.54159 1.2035-.84248 1.8655-.180526.4212-.361057.8425-.541588 1.3239-.4814158 1.3239-.60177 2.5876-.4212388 3.9115.4212388 2.7079 2.2265468 4.9947 4.6938068 6.0177.96283.4212 1.92566.6018 2.94867.6018.30088 0 .66195-.0602.96283-.0602 1.20354-.1204 2.40711-.5416 3.61061-1.2036 1.5044-.8424 2.8885-2.046 4.4531-3.7309 1.5646 1.7451 3.0089 2.9486 4.4531 3.7309 1.2035.662 2.4071 1.0832 3.6106 1.2036.3009.0602.662.0602.9629.0602 1.023 0 2.046-.1806 2.9486-.6018 2.5275-1.023 4.2726-3.3098 4.6938-6.0177.3009-1.2637.1204-2.5274-.3009-3.8513-.1203-.4815-.3008-.9629-.4814-1.3239zm-15.7663 3.1893c-1.9257-2.4672-3.1894-4.7539-3.6708-6.7398-.1806-.8425-.2407-1.5646-.1204-2.2265.0602-.6018.3009-1.0832.6018-1.5044.6619-.9629 1.8655-1.5646 3.1894-1.5646s2.5274.6017 3.1893 1.5646c.3009.4212.4815.9628.6018 1.5044.1204.6619.0602 1.384-.1203 2.2265-.4815 1.9257-1.7452 4.2124-3.6708 6.7398zm14.3823 1.685c-.2408 1.8655-1.5045 3.4903-3.3098 4.2124-.8425.3611-1.8053.4814-2.7681.3611-.9027-.1204-1.8053-.4213-2.7682-.9629-1.3239-.7221-2.5876-1.8655-4.092-3.4902 2.4071-2.9487 3.8513-5.5965 4.3929-8.0036.2407-1.1433.3009-2.1062.1806-3.069-.1204-.9027-.4815-1.7451-.9629-2.4673-1.1433-1.6247-3.0088-2.5876-5.115-2.5876s-3.9717.9629-5.1151 2.5876c-.4814.7222-.8424 1.5646-.9628 2.4673-.1203.9628-.1203 1.9858.1805 3.069.5416 2.4071 2.0461 5.1151 4.393 8.0036-1.5045 1.6849-2.8284 2.7681-4.0921 3.4902-.9628.5416-1.86546.8425-2.76812.9629-.96283.1203-1.92566-.0602-2.76814-.3611-1.74513-.7221-3.00885-2.3469-3.30973-4.2124-.12036-.9027-.06018-1.8053.30088-2.8283.12036-.3611.30089-.7221.48142-1.1434.24071-.6017.54159-1.2035.84248-1.8053l.06017-.0602c2.46726-5.3557 5.17522-10.892 7.94334-16.24774l.1204-.24071c.3009-.54159.6017-1.14336.8425-1.68496.3008-.60176.6017-1.14336 1.023-1.5646.7823-.84247 1.8053-1.26371 2.9486-1.26371 1.1434 0 2.1062.48141 2.8885 1.32389.4213.48142.7222 1.02301 1.023 1.5646.3009.54159.6018 1.14336.8425 1.68496l.1204.2407c2.7681 5.35577 5.4159 10.89207 7.8832 16.24777.3008.6018.5415 1.2036.8424 1.8053.1806.4213.3611.7823.4814 1.1434.3009.9628.4213 1.8655.2408 2.8283zm20.0991-15.4655v.6018s-1.1434-1.4443-3.4903-1.4443c-3.9115 0-7.0407 3.0089-7.0407 7.1611 0 4.092 3.0088 7.1611 7.0407 7.1611 2.4071 0 3.4903-1.5045 3.4903-1.5045v.6018c0 .3009.2407.4814.4814.4814h2.9487v-13.5398h-2.9487c-.2407 0-.4814.2407-.4814.4814zm0 8.7257c-.5416.7823-1.6248 1.5044-2.9487 1.5044-2.2867 0-4.092-1.4442-4.092-3.9115s1.7451-3.9115 4.092-3.9115c1.2637 0 2.4071.7221 2.9487 1.5044zm7.3416-15.76638c-1.3239 0-2.3469 1.02301-2.3469 2.3469 0 1.32388 1.023 2.34688 2.3469 2.34688s2.3469-1.023 2.3469-2.34688c0-1.26372-1.023-2.3469-2.3469-2.3469zm39.5964 7.52208c-1.023-.8424-2.2867-1.3239-3.7911-1.3239-1.3239 0-2.6478.4213-3.6708 1.4443v-.6018c0-.2407-.2407-.4814-.4815-.4814h-2.7681v13.6h3.4903v-9.508c.6619-.7823 1.7451-1.3239 2.8283-1.3239 1.9256 0 2.6478.9027 2.6478 3.1292v7.7027h3.4906v-8.0637c0-2.2867-.4818-3.6106-1.7455-4.5735zm10.5305-1.3239c-2.407 0-3.49 1.4443-3.49 1.4443v-7.64248h-3.49v20.15928h2.949c.301 0 .481-.2407.481-.4814v-.6018s1.143 1.5044 3.49 1.5044c3.912 0 7.041-3.0088 7.041-7.161 0-4.2124-3.129-7.2213-6.981-7.2213zm-.601 11.0124c-1.324 0-2.407-.6619-2.949-1.5044v-4.8142c.542-.7221 1.685-1.5044 2.949-1.5044 2.286 0 4.092 1.4443 4.092 3.9115 0 2.4673-1.806 3.9115-4.092 3.9115zm-29.0658-11.0124c-2.4071 0-3.4902 1.4443-3.4902 1.4443v-7.64248h-3.4903v20.15928h2.9487c.3009 0 .4814-.2407.4814-.4814v-.6018s1.1433 1.5044 3.4903 1.5044c3.9115 0 7.0407-3.0088 7.0407-7.161.0601-4.2124-3.0089-7.2213-6.9806-7.2213zm-.6017 11.0124c-1.3239 0-2.4071-.6619-2.9487-1.5044v-4.8142c.5416-.7221 1.6849-1.5044 2.9487-1.5044 2.2867 0 4.092 1.4443 4.092 3.9115 0 2.4673-1.7451 3.9115-4.092 3.9115zm-12.5169-9.5681v-.6018c0-.2407-.2407-.4814-.4814-.4814h-2.9486v13.6h3.4902v-9.508c1.8053-2.046 4.6938-1.0831 4.6938-1.0831v-3.1894s-.5416-.1806-1.5646-.1806c-1.1433 0-2.5274.662-3.1894 1.4443z" fill="#1f304c"/></g></svg>

<svg width="116" height="36" viewBox="0 0 116 36" fill="none" xmlns="http://www.w3.org/2000/svg">
<g clip-path="url(#clip0)">
<path d="M56.9469 13.2991H60.4372V26.8991H56.9469V13.2991ZM32.6354 24.3717C32.3345 23.7097 32.0337 23.108 31.7929 22.5062L31.7328 22.446C29.2655 17.0301 26.5576 11.554 23.7292 6.13805L23.6089 5.89734C23.308 5.35575 23.0071 4.75398 22.7664 4.21239C22.4053 3.55044 22.0443 2.88849 21.4425 2.22655C20.2991 0.7823 18.6744 0 16.8691 0C15.0637 0 13.439 0.7823 12.2354 2.16637C11.6938 2.82832 11.2726 3.49026 10.9115 4.15221C10.6107 4.75398 10.3098 5.29557 10.0691 5.83716L9.94871 6.07787C7.18057 11.4938 4.4726 16.9699 1.94517 22.3858L1.88499 22.446C1.64428 23.0478 1.3434 23.6495 1.04251 24.3115C0.861984 24.7327 0.681453 25.154 0.500922 25.6354C0.0195062 26.9593 -0.100848 28.223 0.0796832 29.5469C0.500922 32.2548 2.30623 34.5416 4.77349 35.5646C5.73632 35.9858 6.69915 36.1664 7.72216 36.1664C8.02304 36.1664 8.38411 36.1062 8.68499 36.1062C9.88853 35.9858 11.0921 35.5646 12.2956 34.9026C13.8 34.0602 15.1841 32.8566 16.7487 31.1717C18.3133 32.9168 19.7576 34.1203 21.2018 34.9026C22.4053 35.5646 23.6089 35.9858 24.8124 36.1062C25.1133 36.1664 25.4744 36.1664 25.7753 36.1664C26.7983 36.1664 27.8213 35.9858 28.7239 35.5646C31.2514 34.5416 32.9965 32.2548 33.4177 29.5469C33.7186 28.2832 33.5381 27.0195 33.1168 25.6956C32.9965 25.2141 32.816 24.7327 32.6354 24.3717ZM16.8691 27.561C14.9434 25.0938 13.6797 22.8071 13.1983 20.8212C13.0177 19.9787 12.9576 19.2566 13.0779 18.5947C13.1381 17.9929 13.3788 17.5115 13.6797 17.0903C14.3416 16.1274 15.5452 15.5257 16.8691 15.5257C18.193 15.5257 19.3965 16.1274 20.0584 17.0903C20.3593 17.5115 20.5399 18.0531 20.6602 18.5947C20.7806 19.2566 20.7204 19.9787 20.5399 20.8212C20.0584 22.7469 18.7947 25.0336 16.8691 27.561ZM31.2514 29.246C31.0106 31.1115 29.7469 32.7363 27.9416 33.4584C27.0991 33.8195 26.1363 33.9398 25.1735 33.8195C24.2708 33.6991 23.3682 33.3982 22.4053 32.8566C21.0814 32.1345 19.8177 30.9911 18.3133 29.3664C20.7204 26.4177 22.1646 23.7699 22.7062 21.3628C22.9469 20.2195 23.0071 19.2566 22.8868 18.2938C22.7664 17.3911 22.4053 16.5487 21.9239 15.8265C20.7806 14.2018 18.9151 13.2389 16.8089 13.2389C14.7027 13.2389 12.8372 14.2018 11.6938 15.8265C11.2124 16.5487 10.8514 17.3911 10.731 18.2938C10.6107 19.2566 10.6107 20.2796 10.9115 21.3628C11.4531 23.7699 12.9576 26.4779 15.3045 29.3664C13.8 31.0513 12.4761 32.1345 11.2124 32.8566C10.2496 33.3982 9.34694 33.6991 8.44428 33.8195C7.48145 33.9398 6.51862 33.7593 5.67614 33.4584C3.93101 32.7363 2.66729 31.1115 2.36641 29.246C2.24605 28.3433 2.30623 27.4407 2.66729 26.4177C2.78765 26.0566 2.96818 25.6956 3.14871 25.2743C3.38942 24.6726 3.6903 24.0708 3.99119 23.469L4.05136 23.4088C6.51862 18.0531 9.22658 12.5168 11.9947 7.16106L12.1151 6.92035C12.416 6.37876 12.7168 5.77699 12.9576 5.23539C13.2584 4.63363 13.5593 4.09203 13.9806 3.67079C14.7629 2.82832 15.7859 2.40708 16.9292 2.40708C18.0726 2.40708 19.0354 2.88849 19.8177 3.73097C20.239 4.21239 20.5399 4.75398 20.8407 5.29557C21.1416 5.83716 21.4425 6.43893 21.6832 6.98053L21.8036 7.22123C24.5717 12.577 27.2195 18.1133 29.6868 23.469C29.9876 24.0708 30.2283 24.6726 30.5292 25.2743C30.7098 25.6956 30.8903 26.0566 31.0106 26.4177C31.3115 27.3805 31.4319 28.2832 31.2514 29.246ZM51.3505 13.7805V14.3823C51.3505 14.3823 50.2071 12.938 47.8602 12.938C43.9487 12.938 40.8195 15.9469 40.8195 20.0991C40.8195 24.1911 43.8283 27.2602 47.8602 27.2602C50.2673 27.2602 51.3505 25.7557 51.3505 25.7557V26.3575C51.3505 26.6584 51.5912 26.8389 51.8319 26.8389H54.7806V13.2991H51.8319C51.5912 13.2991 51.3505 13.5398 51.3505 13.7805ZM51.3505 22.5062C50.8089 23.2885 49.7257 24.0106 48.4018 24.0106C46.1151 24.0106 44.3098 22.5664 44.3098 20.0991C44.3098 17.6318 46.0549 16.1876 48.4018 16.1876C49.6655 16.1876 50.8089 16.9097 51.3505 17.692V22.5062ZM58.6921 6.73982C57.3682 6.73982 56.3452 7.76283 56.3452 9.08672C56.3452 10.4106 57.3682 11.4336 58.6921 11.4336C60.016 11.4336 61.039 10.4106 61.039 9.08672C61.039 7.823 60.016 6.73982 58.6921 6.73982ZM98.2885 14.2619C97.2655 13.4195 96.0018 12.938 94.4974 12.938C93.1735 12.938 91.8496 13.3593 90.8266 14.3823V13.7805C90.8266 13.5398 90.5859 13.2991 90.3451 13.2991H87.577V26.8991H91.0673V17.3911C91.7292 16.6088 92.8124 16.0672 93.8956 16.0672C95.8212 16.0672 96.5434 16.9699 96.5434 19.1964V26.8991H100.034V18.8354C100.034 16.5487 99.5522 15.2248 98.2885 14.2619ZM108.819 12.938C106.412 12.938 105.329 14.3823 105.329 14.3823V6.73982H101.839V26.8991H104.788C105.089 26.8991 105.269 26.6584 105.269 26.4177V25.8159C105.269 25.8159 106.412 27.3203 108.759 27.3203C112.671 27.3203 115.8 24.3115 115.8 20.1593C115.8 15.9469 112.671 12.938 108.819 12.938ZM108.218 23.9504C106.894 23.9504 105.811 23.2885 105.269 22.446V17.6318C105.811 16.9097 106.954 16.1274 108.218 16.1274C110.504 16.1274 112.31 17.5717 112.31 20.0389C112.31 22.5062 110.504 23.9504 108.218 23.9504ZM79.1522 12.938C76.7451 12.938 75.662 14.3823 75.662 14.3823V6.73982H72.1717V26.8991H75.1204C75.4213 26.8991 75.6018 26.6584 75.6018 26.4177V25.8159C75.6018 25.8159 76.7451 27.3203 79.0921 27.3203C83.0036 27.3203 86.1328 24.3115 86.1328 20.1593C86.1929 15.9469 83.1239 12.938 79.1522 12.938ZM78.5505 23.9504C77.2266 23.9504 76.1434 23.2885 75.6018 22.446V17.6318C76.1434 16.9097 77.2867 16.1274 78.5505 16.1274C80.8372 16.1274 82.6425 17.5717 82.6425 20.0389C82.6425 22.5062 80.8974 23.9504 78.5505 23.9504ZM66.0336 14.3823V13.7805C66.0336 13.5398 65.7929 13.2991 65.5522 13.2991H62.6036V26.8991H66.0938V17.3911C67.8991 15.3451 70.7876 16.308 70.7876 16.308V13.1186C70.7876 13.1186 70.246 12.938 69.223 12.938C68.0797 12.938 66.6956 13.6 66.0336 14.3823Z" fill="#1F304C"/>
</g>
<defs>
<clipPath id="clip0">
<rect width="115.8" height="36" fill="white"/>
</clipPath>
</defs>
</svg>
